svg/200/rounded/sprinkler-fill.svg

<svg xmlns="http://www.w3.org/2000/svg" width="48" height="48" viewBox="0 -960 960 960"><path d="M480-488q-13.579 0-22.289-9.095Q449-506.19 449-519.385q0-13.194 8.711-22.289 8.71-9.095 22.289-9.095t22.289 9.258Q511-532.252 511-519.769q0 13.579-8.711 22.674Q493.579-488 480-488Zm0-160q-13.579 0-22.289-9.095Q449-666.19 449-679.385q0-13.194 8.711-22.289 8.71-9.095 22.289-9.095t22.289 9.258Q511-692.252 511-679.769q0 13.579-8.711 22.674Q493.579-648 480-648Zm0-160q-13.579 0-22.289-9.095Q449-826.19 449-839.385q0-13.194 8.711-22.289 8.71-9.095 22.289-9.095t22.289 9.258Q511-852.252 511-839.769q0 13.579-8.711 22.674Q493.579-808 480-808Zm119.769 399q-13.579 0-22.674-8.711Q568-426.421 568-440t9.095-22.289Q586.19-471 599.385-471q13.194 0 22.289 8.711 9.095 8.71 9.095 22.289t-9.258 22.289Q612.252-409 599.769-409Zm113-114q-13.579 0-22.674-8.711Q681-540.421 681-554t9.095-22.289Q699.19-585 712.385-585q13.194 0 22.289 8.711 9.095 8.71 9.095 22.289t-9.258 22.289Q725.252-523 712.769-523Zm113-112q-13.579 0-22.674-8.711Q794-652.421 794-666t9.095-22.289Q812.19-697 825.385-697q13.194 0 22.289 8.711 9.095 8.71 9.095 22.289t-9.258 22.289Q838.252-635 825.769-635ZM360.615-409q-13.194 0-22.289-8.711-9.095-8.71-9.095-22.289t9.258-22.289Q347.748-471 360.231-471q13.579 0 22.674 8.711Q392-453.579 392-440t-9.095 22.289Q373.81-409 360.615-409Zm-113-114q-13.194 0-22.289-8.711-9.095-8.71-9.095-22.289t9.258-22.289Q234.748-585 247.231-585q13.579 0 22.674 8.711Q279-567.579 279-554t-9.095 22.289Q260.81-523 247.615-523Zm-113-112q-13.194 0-22.289-8.711-9.095-8.71-9.095-22.289t9.258-22.289Q121.748-697 134.231-697q13.579 0 22.674 8.711Q166-679.579 166-666t-9.095 22.289Q147.81-635 134.615-635Zm330 370.385H320q-6.539 0-10.962-4.485-4.423-4.486-4.423-11.116t4.423-10.899q4.423-4.27 10.962-4.27h320q6.539 0 10.962 4.485 4.423 4.486 4.423 11.116t-4.423 10.899q-4.423 4.27-10.962 4.27H495.385v149.23q0 6.539-4.485 10.962Q486.414-100 479.784-100t-10.899-4.423q-4.27-4.423-4.27-10.962v-149.23Z"/></svg>

<svg xmlns="http://www.w3.org/2000/svg" width="48" height="48" viewBox="0 -960 960 960"><path d="M480-488q-13.58 0-22.29-9.1-8.71-9.09-8.71-22.28 0-13.2 8.71-22.29 8.71-9.1 22.29-9.1 13.58 0 22.29 9.26 8.71 9.26 8.71 21.74 0 13.58-8.71 22.67-8.71 9.1-22.29 9.1Zm0-160q-13.58 0-22.29-9.1-8.71-9.09-8.71-22.28 0-13.2 8.71-22.29 8.71-9.1 22.29-9.1 13.58 0 22.29 9.26 8.71 9.26 8.71 21.74 0 13.58-8.71 22.67-8.71 9.1-22.29 9.1Zm0-160q-13.58 0-22.29-9.1-8.71-9.09-8.71-22.28 0-13.2 8.71-22.29 8.71-9.1 22.29-9.1 13.58 0 22.29 9.26 8.71 9.26 8.71 21.74 0 13.58-8.71 22.67-8.71 9.1-22.29 9.1Zm119.77 399q-13.58 0-22.67-8.71-9.1-8.71-9.1-22.29 0-13.58 9.1-22.29 9.09-8.71 22.28-8.71 13.2 0 22.29 8.71 9.1 8.71 9.1 22.29 0 13.58-9.26 22.29-9.26 8.71-21.74 8.71Zm113-114q-13.58 0-22.67-8.71-9.1-8.71-9.1-22.29 0-13.58 9.1-22.29 9.09-8.71 22.28-8.71 13.2 0 22.29 8.71 9.1 8.71 9.1 22.29 0 13.58-9.26 22.29-9.26 8.71-21.74 8.71Zm113-112q-13.58 0-22.67-8.71-9.1-8.71-9.1-22.29 0-13.58 9.1-22.29 9.09-8.71 22.28-8.71 13.2 0 22.29 8.71 9.1 8.71 9.1 22.29 0 13.58-9.26 22.29-9.26 8.71-21.74 8.71ZM360.62-409q-13.2 0-22.29-8.71-9.1-8.71-9.1-22.29 0-13.58 9.26-22.29 9.26-8.71 21.74-8.71 13.58 0 22.67 8.71 9.1 8.71 9.1 22.29 0 13.58-9.1 22.29-9.09 8.71-22.28 8.71Zm-113-114q-13.2 0-22.29-8.71-9.1-8.71-9.1-22.29 0-13.58 9.26-22.29 9.26-8.71 21.74-8.71 13.58 0 22.67 8.71 9.1 8.71 9.1 22.29 0 13.58-9.1 22.29-9.09 8.71-22.28 8.71Zm-113-112q-13.2 0-22.29-8.71-9.1-8.71-9.1-22.29 0-13.58 9.26-22.29 9.26-8.71 21.74-8.71 13.58 0 22.67 8.71 9.1 8.71 9.1 22.29 0 13.58-9.1 22.29-9.09 8.71-22.28 8.71Zm330 370.38H320q-6.54 0-10.96-4.48-4.42-4.49-4.42-11.12 0-6.63 4.42-10.9 4.42-4.26 10.96-4.26h320q6.54 0 10.96 4.48 4.42 4.49 4.42 11.12 0 6.63-4.42 10.9-4.42 4.26-10.96 4.26H495.38v149.24q0 6.53-4.48 10.96-4.49 4.42-11.12 4.42-6.63 0-10.9-4.42-4.26-4.43-4.26-10.96v-149.24Z"/></svg>
